X:28
T:The Merry Blacksmith
R:reel
O:Ireland
M:4/4
L:1/8
K:D
AB | "D" d2 dA    "A" BAFA | "D" ABdA  "A" BAFA | "D" ABde   f2  ed | "G" Beed "A" egfe | 
     "D" dcdA     "A" BAFA | "D" ABdA  "A" BAFA | "D" ABde "G" fdec | "A" dBAF  "D" D2  :|
fg | "D" a2 ag "(A)" f2 fe | "D" d2 dA "A" BAFA | "D" ABde   f2  ed | "G" Beed "A" egfe |
     "D" abag   "(A)" fgfe | "D" dcdA  "A" BAFA | "D" ABde "G" fdec | "A" dBAF  "D" D2  :|
